X:4
T:Lila Hashem
R:reel
D:Laments and Merry Melodies, Theresa Morrison
Z:Paul Stewart Cranford (P.S.C.), <http://www.cranfordpub.com>
Q:333
L:1/8
M:C|
K:D
G|FA A/A/A AFAd|f2 df edBe|d2 AF ABdA|BdAF E2 EG|
FA A/A/A AFAd|f2 df edBe|d2 AF ABdA|BdAF D/D/D D:|
|:g|fdfd ecAc|BGdB AFAd|f2 dB ABde|fbaf e2 eg|
[1fdfd ecAc|BGdB AFAd|B2 AF ABdA|BdAF D/D/D D:|
[2fafa gbgb|afdf edBe|d2 AF ABdA|BdAF D/D/D D|]
